X: 1
T: Soldier's Joy
C: trad.
O: from Ethan Setiawan
R: reel
S: Fiddle Hell Online 2021-11-1
Z: 2022 John Chambers <jc:trillian.mit.edu>
M: 4/4
L: 1/8
K: D
"^A" FG |\
"D"vAuFDF AFDF | A2d2 d2dB | AFDF AFDF | "A"G2E2 E2FG |
"D"AFDF AFDF | A2d2 d2de | vfuavfud "A"veugveuc | "D"vd2dc d2 :|
"^B"|: de |\
"D"fefg a2gf | "G"edef g2ge | "D"fefg a2ge "A"veudvcuB vA2de |
"D"fefg a2gf | "G"edef g2ge | "D"vfuavfud "A"veugveuc | "D"d2dc d2 :|
